!!!COM: Scriabin, Alexander
!!!OTL: Etude
!!!OPR: 12 Etudes
!!!OPS: 8
!!!ONM: 1
!!!ODT: 1894
!!!AGN: Etude
!!!OMD: Allegro M.M. [quarter] = 168
**kern	**kern	**dynam
*part1	*part1	*
*staff2	*staff1	*staff1/2
*Ipiano	*Ipiano	*
*clefF4	*clefG2	*
*k[f#c#g#d#a#e#b#]	*k[f#c#g#d#a#e#b#]	*
*C#:	*C#:	*
*met(c)	*met(c)	*
*M4/4	*M4/4	*
*MM168	*MM168	*
*	*Xtuplet	*
4GG# 4B#	12f# 12g#L>	p
.	12f# 12g#	.
.	12ee#J	.
=1	=1	=1
4C# 4Bn	12e# 12g#L	<
.	12e# 12g#	.
.	12cc#J	.
4FF# 4A#	12f# 12a#L	.
.	12f# 12a#	.
.	12dd#J	.
4GG# 4G#	12d# 12f#L	.
.	12d# 12f#	.
.	12b#J	.
4C# 4G#	12e# 12g#L	.
.	12e# 12g#	.
.	12cc#J	[
=2	=2	=2
*^	*	*
(8c#L	2D#	12d# 12g#L	>
.	.	12d# 12g#	.
8B#J	.	.	.
.	.	12a#J	.
8B#L	.	12c# 12f##L	.
.	.	12c# 12f##	.
8A#J	.	.	.
.	.	12dd#J	.
!	!	!LO:N:n=2:acc=n#	!
4G#)	4G#	12B# 12f#L	.
.	.	12B# 12f#	.
.	.	12dd#J	]
4B# 4GG#	4ryy	12f# 12g#L>	.
.	.	12f# 12g#	.
.	.	12ee#J	.
*v	*v	*	*
!!LO:LB:g=original
=3	=3	=3
4C# 4Bn	12e# 12g#L	.
.	12e# 12g#	.
.	12cc#J	.
4FF# 4A#	12en 12f#L	.
.	12e 12f#	.
.	12dd#J	.
4BBn 4An	12d# 12f#L	.
.	12d# 12f#	.
.	12bnJ	.
4EEn 4G#	12dn 12eL	.
.	12d 12e	.
.	12cc#J	.
=4	=4	=4
*^	*	*
4An 4AAn	4ryy	12c# 12enL	.
.	.	12c# 12e	.
.	.	12anJ	.
8EnL	4AA	12c# 12eL	.
.	.	12c# 12e	.
8EJ	.	.	.
.	.	12g#J	.
4D#	4AA#	12c# 12d#L	.
.	.	12c# 12d#	.
.	.	12f##J	.
8BBB# 8BB#L	4ryy	12G# 12d#L	.
.	.	12G# 12d#	.
8F#J	.	.	.
.	.	12g#J	.
*v	*v	*	*
=5	=5	=5
8CC# 8C#L	12A# 12d#L	.
.	12A# 12d#	.
8F#J	.	.
.	12a#J	.
2F# 2A# 2f#	12e# 12a#L	sf >
.	12e# 12a#	.
.	12ee#J	.
.	12d# 12a#L	.
.	12d# 12a#	.
.	12dd#J	.
8BBB# 8BB#L	12G# 12d#L	] <
.	12G# 12d#	.
8F#J	.	.
.	12g#J	.
!!LO:LB:g=original
=6	=6	=6
*^	*	*
8CC# 8C#L	2ryy	12A# 12d#L	.
.	.	12A# 12d#	.
8F#J	.	.	.
.	.	12a#J	[
2F# 2A# 2f#	.	12e# 12a#L	.
.	.	12e# 12a#	.
.	.	12ee#J	.
.	4ryy	12d# 12a#L	.
.	.	12d# 12a#	.
.	.	12dd#J	.
4F#	4BB#	12G# 12d#L	.
.	.	12G# 12d#	.
.	.	12g#J	.
=7	=7	=7	=7
2F#	4BBn	12G## 12d#L	.
.	.	12G## 12d#	.
.	.	12g##J	.
.	4AA#	12A# 12d#L	.
.	.	12A# 12d#	.
.	.	12a#J	.
4d#	2AA# 2G#	12f# 12a#L>	.
.	.	12f# 12a#	.
.	.	12ff#J	.
4c##	.	12e# 12a#L	.
.	.	12e# 12a#	.
.	.	12ee#J	.
*v	*v	*	*
=8	=8	=8
2D# 2A# 2d#	12f# 12a#L	.
.	12f# 12a#	.
.	12dd#J	.
.	12f# 12cc#L	.
.	12f# 12cc#	.
.	12dd#J	.
4G# 4d#	12f# 12b#L	.
.	12f# 12b#	.
.	12dd#J	.
4GG# 4B#	12f# 12g#L>	.
.	12f# 12g#	.
.	12ee#J	.
!!LO:LB:g=original
=9	=9	=9
4C# 4Bn	12e# 12g#L	<
.	12e# 12g#	.
.	12cc#J	.
4FF# 4A#	12f# 12a#L	.
.	12f# 12a#	.
.	12dd#J	.
4GG# 4G#	12d# 12f#L	.
.	12d# 12f#	.
.	12b#J	.
4C# 4G#	12e# 12g#L	.
.	12e# 12g#	.
.	12cc#J	[
=10	=10	=10
*^	*	*
(8c#L	2D#	12d# 12g#L	>
.	.	12d# 12g#	.
8B#J	.	.	.
.	.	12a#J	.
4B#	.	12c# 12f##L	.
.	.	12c# 12f##	.
.	.	12dd#J	.
!	!	!LO:N:n=2:acc=n#	!
4G#	4G#)	12B# 12f#L	.
.	.	12B# 12f#	.
.	.	12dd#J	]
4B#	4GG#	12f# 12g#L>	.
.	.	12f# 12g#	.
.	.	12ee#J	.
*v	*v	*	*
=11	=11	=11
4C# 4Bn	12e# 12g#L	.
.	12e# 12g#	.
.	12cc#J	.
4FF# 4A#	12en 12f#L	.
.	12e 12f#	.
.	12dd#J	.
4BBn 4An	12d# 12f#L	.
.	12d# 12f#	.
.	12bnJ	.
4EEn 4G#	12dn 12eL	.
.	12d 12e	.
.	12cc#J	.
!!LO:LB:g=original
=12	=12	=12
*^	*	*
4AAn 4An	4ryy	12c# 12enL	.
.	.	12c# 12e	.
.	.	12anJ	.
8EnL	4AA	12c# 12eL	.
.	.	12c# 12e	.
8EJ	.	.	.
.	.	12g#J	.
4D#	4AA#	12c# 12d#L	.
.	.	12c# 12d#	.
.	.	12f##J	.
8BBB# 8BB#L	4ryy	12G# 12d#L	.
.	.	12G# 12d#	.
8F#J	.	.	.
.	.	12g#J	.
*v	*v	*	*
=13	=13	=13
8CC# 8C#L	12A# 12d#L	.
.	12A# 12d#	.
8F#J	.	.
.	12a#J	.
2F# 2A# 2f#	12e# 12a#L	.
.	12e# 12a#	.
.	12ee#J	.
.	12d# 12a#L	.
.	12d# 12a#	.
.	12dd#J	.
8DD# 8D#L	12B# 12f# 12g#L	.
.	12B# 12f# 12g#	.
8G#J	.	.
.	12b#J	.
=14	=14	=14
*^	*	*
8EEn 8EnL	2ryy	12c# 12en 12anL	.
.	.	12c# 12e 12a	.
8AnJ	.	.	.
.	.	12cc#J	.
2c# 2an	.	12f# 12cc#L	.
.	.	12f# 12cc#	.
.	.	12ff#J	.
.	4ryy	12e 12cc#L	.
.	.	12e 12cc#	.
.	.	12eenJ	.
[4A##	[4En	12c## 12g#L	.
.	.	12c## 12g#	.
.	.	12cc##J	.
!!LO:LB:g=original
=15	=15	=15	=15
4A##]	4En]	12c## 12g#L	.
.	.	12c## 12g#	.
.	.	12cc##J	.
4B#	4D#	12d# 12g#L	.
.	.	12g#	.
.	.	12dd#J	.
4g#	2D# 2c#	12b# 12dd#L	.
.	.	12b# 12dd#	.
.	.	12bb#J	.
4f##	.	12a# 12dd#L	.
.	.	12a# 12dd#	.
.	.	12aa#J	.
=16	=16	=16	=16
4c#	2G# 2f##	12a# 12dd#L	.
.	.	12a# 12dd#	.
.	.	12aa#J	.
4d#	.	12a# 12ff##L	.
.	.	12a# 12ff##	.
.	.	12aa#J	.
4G# 4B# 4g#	2ryy	12g# 12dd#L	.
.	.	12g# 12dd#	.
.	.	12gg#J	.
*Xtuplet	*	*	*
12G# 12BnL	.	4dd#	.
12G# 12B	.	.	.
12g#J	.	.	.
*v	*v	*	*
=17	=17	=17
12G# 12d#L	(4cc#	.
12G# 12d#	.	.
12g#J	.	.
12D# 12G#L	8bnL	<
12D# 12G#	.	.
.	8a#J	.
12f#J	.	.
12BBn 12G#L	8g#L	<
12BB 12G#	.	.
.	8d#J	.
12d#J	.	.
12GG# 12D#L	8e#L	.
12GG# 12D#	.	.
.	8f#J	.
12BnJ	.	[
!!LO:LB:g=original
=18	=18	=18
12GG# 12D#L	4f#^>	>
12GG# 12D#	.	.
12BnJ	.	.
12FF# 12D#L	2d#)	.
12FF# 12D#	.	]
12A#J	.	.
12EE# 12D#L	.	.
12EE# 12D#	.	.
12G##J	.	.
4FFF# 4FF#	12A# 12d#L	p
.	12A# 12d#	.
.	12a#J	.
=19	=19	=19
8FFF# 8FF#L	12G## 12d#L	.
.	12G## 12d#	.
!	!	!LO:HP:b=2
8EEE# 8EE#J	.	<
.	12g##J	.
4BBBn^ 4BBn^	12G# 12d#L	[
.	12G# 12d#	.
.	12g#J	.
8BBB^ 8BB^L	12F# 12c##L	.
.	12F# 12c##	.
[8AAA# [8AA#J	.	.
.	12f#J	.
8AAA#] 8AA#L]	12E# 12c##L	.
.	12E# 12c##	.
8AA# 8AAA#J	.	.
.	12e#J	.
=20	=20	=20
4AAA# 4AA#	12E# 12c##L	.
.	12E# 12c##	.
.	12e#J	.
2DD# 2AA#	12F# 12d#L	.
.	12F# 12d#	.
.	12f#J	.
.	12F# 12A#L	.
.	12F# 12A#	.
.	12d#J	.
12D# 12A#L	(4aa#	.
12D# 12A#	.	.
12f#J	.	.
*clefG2	*	*
!!LO:LB:g=original
=21	=21	=21
12d# 12a#L	4gg#	<
12d# 12a#	.	.
12dd#J	.	.
12A# 12d#L	8ff#L	.
12A# 12d#	.	.
.	8ee#J	.
12cc#J	.	<
12F# 12d#L	8dd#L	.
12F# 12d#	.	.
.	8a#J	.
12a#J	.	.
*clefF4	*	*
12D# 12A#L	8b#L	.
12D# 12A#	.	.
.	8cc#J	.
12f#J	.	[
=22	=22	=22
12D# 12A#L	4cc#	>
12D# 12A#	.	.
12f#J	.	.
12C# 12A#L	2a#)	.
12C# 12A#	.	.
12e#J	.	]
12BB# 12A#L	.	.
12BB# 12A#	.	.
12d##J	.	.
4CC# 4C#	12e# 12a#L	p
.	12e# 12a#	.
.	12ee#J	.
=23	=23	=23
8CC# 8C#L	12d## 12a#L	.
.	12d## 12a#	.
8BBB# 8BB#J	.	.
.	12dd##J	.
4FF# 4F#	12d# 12a#L	.
.	12d# 12a#	.
.	12dd#J	.
8FF# 8F#L	12c# 12g##L	.
.	12g##	.
[8EE# [8E#J	.	.
.	12cc#J	.
8EE#] 8E#L]	12B# 12g##L	.
.	12B# 12g##	.
8EE# 8E#J	.	.
.	12b#J	.
!!LO:LB:g=original
=24	=24	=24
4EE# 4E#	12B# 12g##L	.
.	12B# 12g##	.
.	12b#J	.
2AA# 2E#	12c# 12a#L	.
.	12c# 12a#	.
.	12cc#J	.
.	12c# 12e#L	.
.	12c# 12e#	.
.	12a#J	.
12FF# 12C#L	4a# 4ff# (4ccc#	mf
12FF# 12C#	.	.
12F#J	.	.
=25	=25	=25
*	*^	*
12FF# 12C#L	2ryy	4g# 4ff# 4bbn	.
12FF# 12C#	.	.	.
12F#J	.	.	.
12C# 12F#L	.	8a# 8ff# 8aa#L	.
12C# 12F#	.	.	.
.	.	8bn 8cc# 8gg#J	.
12c#J	.	.	.
12F# 12c#L	8ff#L	4a# 4cc#	.
12F# 12c#	.	.	.
.	8cc#J	.	.
12f#J	.	.	.
12C# 12F#L	8dd#L	4an 4cc#	.
12C# 12F#	.	.	.
.	8ee#J	.	.
12c#J	.	.	.
*	*v	*v	*
=26	=26	=26
12FF# 12C#L	4g# 4cc# 4ee#	.
12FF# 12C#	.	.
12G#J	.	.
12C# 12G#L	2e# 2g# 2cc#)	.
12C# 12G#	.	.
12c#J	.	.
12G# 12c#L	.	.
12G# 12c#	.	.
12e#J	.	.
12FF# 12BBnL	4d# 4bn (>4ff#	.
12FF# 12BB	.	.
12F#J	.	.
!!LO:LB:g=original
=27	=27	=27
*	*^	*
12FF# 12BBnL	4c## 4bn 4ee#	2ryy	.
12FF# 12BB	.	.	.
12F#J	.	.	.
12BB 12F#L	8d# 8b 8dd#L	.	.
12BB 12F#	.	.	.
!	!LO:N:n=3:acc=n#	!	!
.	8e# 8f# 8cc#J	.	.
12BnJ	.	.	.
12F# 12BL	8bL	4d# 4f#	.
12F# 12B	.	.	.
.	8f#J	.	.
12f#J	.	.	.
12BB 12F#L	8g#L	4dn 4f#	.
12BB 12F#	.	.	.
.	8a#J	.	.
12BJ	.	.	.
=28	=28	=28	=28
12FF# 12C#L	4c# 4f# 4a#	2.ryy	.
12FF# 12C#	.	.	.
12F#J	.	.	.
12C# 12F#L	4.A# 4.f#)	.	.
12C# 12F#	.	.	.
12c#J	.	.	.
12C# 12F#L	.	.	.
12C# 12F#	.	.	.
.	(>8f#	.	.
12c#J	.	.	.
12FF# 12C#L	8g#L	4c# 4f#	.
12FF# 12C#	.	.	.
.	8a#J	.	.
12F#J	.	.	.
=29	=29	=29	=29
12FF# 12C#L	4c# 4f# 4a#	2.ryy	.
12FF# 12C#	.	.	.
12F#J	.	.	.
12C# 12F#L	4.A# 4.f#)	.	.
12C# 12F#	.	.	.
12c#J	.	.	.
12C# 12F#L	.	.	.
12F#	.	.	.
.	(>8a#	.	.
12c#J	.	.	.
12FF## 12C#L	8b#L	4e# 4a#	.
12FF## 12C#	.	.	.
.	8cc#J	.	.
12A#J	.	.	.
!!LO:LB:g=original
=30	=30	=30	=30
12FF## 12C#L	4e# 4a# 4cc#	2.ryy	.
12FF## 12C#	.	.	.
12A#J	.	.	.
12E# 12A#L	4.c# 4.a#)	.	.
12E# 12A#	.	.	.
12e#J	.	.	.
12E# 12A#L	.	.	.
12E# 12A#	.	.	.
.	(>8a#	.	.
12e#J	.	.	.
12FF## 12C#L	8b#L	4e# 4a#	.
12FF## 12C#	.	.	.
.	8cc#J	.	.
12A#J	.	.	.
*	*v	*v	*
=31	=31	=31
*^	*	*
8c#L	2GG#	12f# 12a#L>	.
.	.	12f# 12a#	.
8D#J	.	.	.
.	.	12ee#J	.
4G#	.	12f# 12b#L	.
.	.	12f# 12b#	>
.	.	12dd#J	.
8A#L	2GG#	12d# 12f#L	.
.	.	12d# 12f#	.
8D#J	.	.	.
.	.	12cc#J	.
4G#	.	12d# 12f#L	.
.	.	12d# 12f#	.
.	.	12b#J	.
*v	*v	*	*
=32	=32	=32
2.GG# 2.F#	12B# 12d#L	.
.	12B# 12d#	.
.	12a#J	.
.	12B# 12d#L	.
.	12B# 12d#	.
.	12f##J	.
.	12B# 12d#L	.
.	12B# 12d#	.
.	12g#J)	.
4GG# 4B#	12f# 12g#L>	p
.	12f# 12g#	.
.	12ee#J	.
!!LO:LB:g=original
=33	=33	=33
4C# 4Bn	12e# 12g#L	<
.	12e# 12g#	.
.	12cc#J	.
4FF# 4A#	12f# 12a#L	.
.	12f# 12a#	.
.	12dd#J	.
4G# 4GG#	12d# 12f#L	.
.	12d# 12f#	.
.	12b#J	.
4C# 4G#	12e# 12g#L	.
.	12e# 12g#	.
.	12cc#J	[
=34	=34	=34
*^	*	*
(8c#L	2D#	12d# 12g#L	>
.	.	12d# 12g#	.
8B#J	.	.	.
.	.	12a#J	.
8B#L	.	12c# 12f##L	.
.	.	12c# 12f##	.
8A#J	.	.	.
.	.	12dd#J	.
4G#	4G#)	12B# 12f#L	.
.	.	12B# 12f#	.
.	.	12dd#J	.
4B# 4GG#	4ryy	12f# 12g#L>	.
.	.	12f# 12g#	.
.	.	12ee#J	]
*v	*v	*	*
=35	=35	=35
4C# 4Bn	12e# 12g#L	.
.	12e# 12g#	.
.	12cc#J	.
4FF# 4A#	12en 12f#L	.
.	12e 12f#	.
.	12dd#J	.
4BBn 4An	12d# 12f#L	.
.	12d# 12f#	.
.	12bnJ	.
4EEn 4G#	12dn 12eL	.
.	12d 12e	.
.	12cc#J	.
!!LO:LB:g=original
=36	=36	=36
*^	*	*
4ryy	4AAn 4An	12c# 12enL	.
.	.	12c# 12e	.
.	.	12anJ	.
8EnL	4AA	12c# 12eL	.
.	.	12c# 12e	.
8EJ	.	.	.
.	.	12g#J	.
4D#	4AA#	12c# 12d#L	.
.	.	12c# 12d#	.
.	.	12f##J	.
4ryy	8BBB# 8BB#L	12G# 12d#L	.
.	.	12G# 12d#	.
.	8F#J	.	.
.	.	12g#J	.
*v	*v	*	*
=37	=37	=37
8CC# 8C#L	12A# 12d#L	.
.	12A# 12d#	.
8F#J	.	.
.	12a#J	.
2F#^ 2A#^ 2f#^	12e# 12a#L	>
.	12e# 12a#	.
.	12ee#J	.
.	12d# 12a#L	.
.	12d# 12a#	.
.	12dd#J	.
8DD# 8D#L	12B# 12g#L	]
.	12B# 12g#	.
8G#J	.	.
.	12b#J	.
=38	=38	=38
8EE# 8E#L>	12c# 12g# 12bnL	.
.	12c# 12g# 12b	.
8c#J	.	.
.	12cc#J	.
2c#^ 2bn^	12a# 12cc#L	.
.	12a# 12cc#	.
.	12aa#J	.
.	12g# 12cc#L	.
.	12g# 12cc#	.
.	12gg#J	.
8FF# 8F#L>	12a# 12cc#L	.
.	12a# 12cc#	.
8c#J	.	.
.	12aa#J	.
!!LO:LB:g=original
=39	=39	=39
*^	*	*
4.FF# 4.F#	8FF# 8F#L	12a# 12dd##L	f
.	.	12a# 12dd##	.
.	8d##J	.	.
.	.	12aa#J	.
.	8B# 8b#L	12a# 12dd##L	.
.	.	12a# 12dd##	.
8BB# 8B#	8BB#J	.	.
.	.	12bb#J	.
4.EE# 4.E#	8EE#L	12g# 12dd#L	.
.	.	12g# 12dd#	.
!	!LO:N:acc=n#	!	!
.	8d#J	.	.
.	.	12gg#J	.
.	8Bn 8bnL	12g# 12dd#L	.
.	.	12g# 12dd#	.
8EE# 8E#	8EE#J	.	.
.	.	12gg#J	.
=40	=40	=40	=40
4.AA# 4.A#	8AA#L	12g# 12cc##L	.
.	.	12g# 12cc##	.
.	8e#J	.	.
.	.	12gg#J	.
.	8A# 8a#L	12g# 12cc##L	.
.	.	12g# 12cc##	.
8AA# 8A#	8AA#J	.	.
.	.	12aa#J	.
8D#L	4DD# 4D#	12f# 12a#L>	.
.	.	12f# 12a#	.
8D# 8A# 8d#J	.	.	.
.	.	12ff#J	.
8F#L	4FF# 4F#	12d# 12a#L	.
.	.	12d# 12a#	.
8D# 8A# 8d#J	.	.	.
.	.	12dd#J	.
*v	*v	*	*
=41	=41	=41
8GG# 8G#L<	12g# 12cc#L	<
.	12g# 12cc#	.
8G#J	.	.
.	12gg#J	.
8E# 8c# 8e#L	12g# 12cc#L	.
.	12g# 12cc#	.
8E#J	.	.
.	12gg#J	.
8GG# 8G#L	12an 12cc# 12ff##L	.
.	12a 12cc# 12ff##	.
[8AnJ	.	.
.	12aanJ	.
8En 8A] 8c# 8f##L	12a 12cc# 12ff##L	.
.	12a 12cc# 12ff##	.
8EJ	.	.
.	12aaJ	.
!!LO:LB:g=original
=42	=42	=42
8GG# 8G#L	12a# 12cc# 12ff##L	.
.	12a# 12cc# 12ff##	.
[8A#J	.	.
.	12aa#J	.
8D# 8A#] 8c# 8f##L	12a# 12cc# 12ff##L	.
.	12a# 12cc# 12ff##	.
8D#J	.	.
.	12aa#J	.
8GG# 8G#L<	12b# 12ff# 12gg#L	.
.	12b# 12ff# 12gg#	.
[8G#J	.	.
.	12bb#J	.
!LO:N:n=4:acc=n#	!	!
8D# 8G#] 8B# 8f#L	12b# 12ff# 12gg#L	.
.	12b# 12ff# 12gg#	.
8GG# 8G#J	.	.
.	12bb#J	.
=43	=43	=43
4CC# 4C#	4cc# 4ee# 4gg# 4ccc#	sf
4B#	12f# 12g#L>	p
.	12f# 12g#	.
.	12ee#J	.
4Bn	12e# 12g#L	.
.	12e# 12g#	.
.	12cc#J	.
4A#	12en 12f#L	.
.	12e 12f#	.
.	12dd#J	.
=44	=44	=44
*^	*	*
2.ryy	4An	12d# 12f#L	.
.	.	12d# 12f#	.
.	.	12bnJ	.
.	4G#	12dn 12e#L	.
.	.	12d 12e#	.
.	.	12cc#J	.
.	4F##	12c# 12e#L	.
.	.	12c# 12e#	.
.	.	12anJ	.
[4G#^	8G#L	12B# 12f#L	.
.	.	12B# 12f#	.
.	8GG#J	.	.
.	.	12g#J	.
*v	*v	*	*
!!LO:LB:g=original
=45	=45	=45
4C# 4G#]	12c# 12e#L	.
.	12c# 12e#	.
.	12g#J	.
4B#	12f# 12g#L>	.
.	12f# 12g#	.
.	12ee#J	.
4Bn	12e# 12g#L	.
.	12e# 12g#	.
.	12cc#J	.
4A#	12en 12f#L	.
.	12e 12f#	.
.	12dd#J	.
=46	=46	=46
*^	*	*
2.ryy	4An	12d# 12f#L	.
.	.	12d# 12f#	.
.	.	12bnJ	.
.	4G#	12dn 12enL	.
.	.	12d 12e	.
.	.	12cc#J	.
.	4F##	12c# 12eL	.
.	.	12c# 12e	.
.	.	12anJ	.
[4G#^	8G#L	12B# 12f#L	.
.	.	12B# 12f#	.
.	8GG#J	.	.
.	.	12g#J	.
=47	=47	=47	=47
4G#]	4C#	12c# 12e#L	.
.	.	12c# 12e#	.
.	.	&(12g#J&)	.
2ryy	2F##^	12c# 12enL	.
.	.	12c# 12e	.
.	.	12anJ	.
.	.	12c# 12eL	.
.	.	12c# 12e	.
.	.	12aJ	.
[4G#	8G#L	12B# 12f#L	.
.	.	12B# 12f#	.
.	8GG#J	.	.
.	.	12g#J	.
!!LO:LB:g=original
=48	=48	=48	=48
2.ryy	4C# 4G#]	12c# 12e#L	.
.	.	12c# 12e#	.
.	.	12g#J	.
.	2F##^	12c# 12enL	.
.	.	12c# 12e	.
.	.	12a#J	.
.	.	12c# 12eL	.
.	.	12c# 12e	.
.	.	12a#J	.
[4G#	8G#L	12B# 12f#L	.
.	.	12B# 12f#	.
.	8GG#J	.	.
.	.	12g#J	.
=49	=49	=49	=49
4G#]	4C#	12c# 12e#L	.
.	.	12c# 12e#	.
.	.	12g#J	>
12G# 12c#L	2.ryy	12e# 12g#L	.
12G# 12c#	.	12e# 12g#	.
12C#J	.	12cc#J	.
12c# 12e#L	.	12g# 12cc#L	.
12c# 12e#	.	12g# 12cc#	.
12E#J	.	12ee#J	.
12e# 12g#L	.	12cc# 12ee#L	.
12e# 12g#	.	12cc# 12ee#	.
12G#J	.	12gg#J	.
*v	*v	*	*
*clefG2	*	*
=50	=50	=50
*	*8va	*
12g# 12cc#L	12ee# 12gg#L	.
12g# 12cc#	12ee# 12gg#	.
12c#J	12ccc#J	.
12cc# 12ee#L	12gg# 12ccc#L	.
12cc# 12ee#	12gg# 12ccc#	.
12e#J	12eee#J	.
12ee# 12gg#L	12ccc# 12eee#L	.
12ee# 12gg#	12ccc# 12eee#	.
12g#J	12ggg#J	.
12gg# 12ccc#L	12eee# 12ggg#L	.
12gg# 12ccc#	12eee# 12ggg#	.
12cc#J	12cccc#J	.
=51	=51	=51
4ee# 4ccc#	4ggg# 4eeee#	.
*	*X8va	*
4r	4r	.
*clefF4	*	*
4E# 4c# 4e#	4g# 4cc# 4gg#	p
4r	4r	.
=52	=52	=52
1CC# 1GC# 1C#	1E# 1c#	.
==	==	==
*-	*-	*-
!!!RDF**kern: > = above
!!!RDF**kern: < = below
!!!RDF**dynam: > = dim.
!!!URL-pdf: https://s9.imslp.org/files/imglnks/usimg/f/f6/IMSLP309417-PMLP07375-Skrjabin_op.08_Zwoelf_Etueden.pdf First edition
!!!PPP: Frankfurt: M.P. Belaieff, 1895. Plate 1180.
!!!ENC: Craig Stuart Sapp
!!!END: 2004/09/03
!!!EED: Craig Stuart Sapp
!!!EEV: 2023/02/18
